static/scenes/snowbox/img/icons/zoom-in.svg

<svg width="30" height="33" viewBox="0 0 30 33" fill="none" xmlns="http://www.w3.org/2000/svg">
<rect x="6.38281" y="15" width="3" height="14.7128" transform="rotate(-90 6.38281 15)" fill="white"/>
<rect x="12.2383" y="6.14355" width="3" height="14.7128" fill="white"/>
<path fill-rule="evenodd" clip-rule="evenodd" d="M27.6912 32.0732L30 30.1572L23.6515 22.5074C25.7932 20.1181 27.0957 16.9611 27.0957 13.4999C27.0957 6.0441 21.0515 -5.34058e-05 13.5957 -5.34058e-05C6.13986 -5.34058e-05 0.0957031 6.0441 0.0957031 13.4999C0.0957031 20.9558 6.13986 26.9999 13.5957 26.9999C16.509 26.9999 19.2068 26.0771 21.4127 24.5078L27.6912 32.0732ZM3.0957 13.4999C3.0957 7.70096 7.79671 2.99995 13.5957 2.99995C19.3947 2.99995 24.0957 7.70096 24.0957 13.4999C24.0957 19.2989 19.3947 23.9999 13.5957 23.9999C7.79671 23.9999 3.0957 19.2989 3.0957 13.4999Z" fill="white"/>
</svg>

<svg xmlns="http://www.w3.org/2000/svg" width="30" height="33" fill="#fff"><path d="M6.383 15v-3h14.713v3z"/><path d="M12.238 6.144h3v14.713h-3z"/><path fill-rule="evenodd" d="M27.69 32.073L30 30.157l-6.35-7.65a13.45 13.45 0 0 0 3.444-9.007c0-7.456-6.044-13.5-13.5-13.5S.096 6.044.096 13.5 6.14 27 13.596 27a13.44 13.44 0 0 0 7.817-2.492l6.278 7.565zM3.096 13.5c0-5.8 4.7-10.5 10.5-10.5s10.5 4.7 10.5 10.5-4.7 10.5-10.5 10.5-10.5-4.7-10.5-10.5z"/></svg>
